X:45
T:Wansted Assembly. JJo4.045
B:J.Johnson Choice Collection Vol 4, 1748
Z:vmp.Ruairidh Greig 2014 www.village-music-project.org.uk
M:C|
L:1/8
Q:1/4=100
K:G
c|BG (G/A/B/c/) dB (B/c/d/B/)|cA (A/B/c/d/) eA-Ac|BG (G/A/B/c/) dB-Bg|ecdB G/G/G G:|
e/f/|gdBG (g/f/g/a/) ge|aecA a/g/a/b/ af|gdBG g/f/g/a/ gd|e/e/e fg dB G:|
B/A/|GBGd GBGd|A/A/A ce (A/B/c/B/) Ae|G/G/G Bd g/g/g dB|(e/f/g) dBG3:|
e/f/|gdBg g/g/g dB|aece a/a/a ec|gdBd g/g/g dB|e/e/e fg dB G:|

